X:23
T:John MacLean's Fancy
R:pipe jig
C:Brenda Stubbert
O:Cape Breton Island
S:http://www.cranfordpub.com
D:Music All Around, 2003
Z:psc, (re-formatted,updated 9/19/04)
N:http://www.cranfordpub.com/stubbert
H:                                                        copyrights Stubbert Music, SOCAN
L:1/8
Q:300
M:6/8
K:Amix
a|AAA cBc|AAA fga|AAA cBA|c<ec BGB|
AAA cBc|AAA fga|eac dcB|AGB A2:|
|:g|aee fdd|ecc cBA|aee gd=c|BGB deg|
aee fdd|ecc cBA|c<ec dBg|ABG A2:|
